assets/1. P-Z/Up-right arrow/Color/Up-right.Arrow-color.svg

<svg width="100%" height="100%" viewBox="0 0 32 32" fill="none" xmlns="http://www.w3.org/2000/svg">
<g filter="url(#filter0_ii_18590_708)">
<rect x="2.0658" y="1.9375" width="27.875" height="27.875" rx="3.6" fill="url(#paint0_linear_18590_708)"/>
<rect x="2.0658" y="1.9375" width="27.875" height="27.875" rx="3.6" fill="url(#paint1_radial_18590_708)"/>
</g>
<g filter="url(#filter1_f_18590_708)">
<path d="M28.2533 4.4375V27.3125" stroke="url(#paint2_linear_18590_708)" stroke-width="1.5" stroke-linecap="round"/>
</g>
<g filter="url(#filter2_f_18590_708)">
<path d="M5.52966 3.75H27.3109" stroke="url(#paint3_linear_18590_708)" stroke-width="1.5" stroke-linecap="round"/>
</g>
<g filter="url(#filter3_f_18590_708)">
<path d="M23.304 9.57944C23.3069 9.02318 22.8552 8.57151 22.2989 8.57435L15.8578 8.60723C14.9694 8.61176 14.5276 9.68609 15.1558 10.3143L16.6486 11.8072C16.7756 11.9341 16.7297 12.1554 16.5996 12.2791C16.5934 12.285 16.5873 12.291 16.5812 12.2971L8.99541 19.8828C8.60488 20.2734 8.60488 20.9065 8.99541 21.2971L10.5812 22.8828C10.9717 23.2734 11.6049 23.2734 11.9954 22.8828L19.5812 15.2971C19.5873 15.291 19.5932 15.2849 19.5991 15.2787C19.7228 15.1486 19.9441 15.1027 20.0711 15.2296L21.564 16.7226C22.1923 17.3508 23.2666 16.909 23.2711 16.0206L23.304 9.57944Z" fill="#579FFF"/>
</g>
<g filter="url(#filter4_ii_18590_708)">
<path d="M23.304 9.57944C23.3069 9.02318 22.8552 8.57151 22.2989 8.57435L15.8578 8.60723C14.9694 8.61176 14.5276 9.68609 15.1558 10.3143L16.6486 11.8072C16.7756 11.9341 16.7297 12.1554 16.5996 12.2791C16.5934 12.285 16.5873 12.291 16.5812 12.2971L8.99541 19.8828C8.60488 20.2734 8.60488 20.9065 8.99541 21.2971L10.5812 22.8828C10.9717 23.2734 11.6049 23.2734 11.9954 22.8828L19.5812 15.2971C19.5873 15.291 19.5932 15.2849 19.5991 15.2787C19.7228 15.1486 19.9441 15.1027 20.0711 15.2296L21.564 16.7226C22.1923 17.3508 23.2666 16.909 23.2711 16.0206L23.304 9.57944Z" fill="#FCF2FF"/>
</g>
<defs>
<filter id="filter0_ii_18590_708" x="2.0658" y="0.9375" width="28.875" height="28.875" filterUnits="userSpaceOnUse" color-interpolation-filters="sRGB">
<feFlood flood-opacity="0" result="BackgroundImageFix"/>
<feBlend mode="normal" in="SourceGraphic" in2="BackgroundImageFix" result="shape"/>
<feColorMatrix in="SourceAlpha" type="matrix" values="0 0 0 0 0 0 0 0 0 0 0 0 0 0 0 0 0 0 127 0" result="hardAlpha"/>
<feOffset dx="1" dy="-1"/>
<feGaussianBlur stdDeviation="1.5"/>
<feComposite in2="hardAlpha" operator="arithmetic" k2="-1" k3="1"/>
<feColorMatrix type="matrix" values="0 0 0 0 0.188235 0 0 0 0 0.470588 0 0 0 0 0.843137 0 0 0 1 0"/>
<feBlend mode="normal" in2="shape" result="effect1_innerShadow_18590_708"/>
<feColorMatrix in="SourceAlpha" type="matrix" values="0 0 0 0 0 0 0 0 0 0 0 0 0 0 0 0 0 0 127 0" result="hardAlpha"/>
<feOffset dy="-1"/>
<feGaussianBlur stdDeviation="1.5"/>
<feComposite in2="hardAlpha" operator="arithmetic" k2="-1" k3="1"/>
<feColorMatrix type="matrix" values="0 0 0 0 0.27451 0 0 0 0 0.34902 0 0 0 0 0.8 0 0 0 1 0"/>
<feBlend mode="normal" in2="effect1_innerShadow_18590_708" result="effect2_innerShadow_18590_708"/>
</filter>
<filter id="filter1_f_18590_708" x="25.5033" y="1.6875" width="5.5" height="28.375" filterUnits="userSpaceOnUse" color-interpolation-filters="sRGB">
<feFlood flood-opacity="0" result="BackgroundImageFix"/>
<feBlend mode="normal" in="SourceGraphic" in2="BackgroundImageFix" result="shape"/>
<feGaussianBlur stdDeviation="1" result="effect1_foregroundBlur_18590_708"/>
</filter>
<filter id="filter2_f_18590_708" x="2.77966" y="1" width="27.2812" height="5.5" filterUnits="userSpaceOnUse" color-interpolation-filters="sRGB">
<feFlood flood-opacity="0" result="BackgroundImageFix"/>
<feBlend mode="normal" in="SourceGraphic" in2="BackgroundImageFix" result="shape"/>
<feGaussianBlur stdDeviation="1" result="effect1_foregroundBlur_18590_708"/>
</filter>
<filter id="filter3_f_18590_708" x="7.70251" y="7.57434" width="16.6016" height="16.6014" filterUnits="userSpaceOnUse" color-interpolation-filters="sRGB">
<feFlood flood-opacity="0" result="BackgroundImageFix"/>
<feBlend mode="normal" in="SourceGraphic" in2="BackgroundImageFix" result="shape"/>
<feGaussianBlur stdDeviation="0.5" result="effect1_foregroundBlur_18590_708"/>
</filter>
<filter id="filter4_ii_18590_708" x="8.10251" y="8.17434" width="15.6016" height="15.6014" filterUnits="userSpaceOnUse" color-interpolation-filters="sRGB">
<feFlood flood-opacity="0" result="BackgroundImageFix"/>
<feBlend mode="normal" in="SourceGraphic" in2="BackgroundImageFix" result="shape"/>
<feColorMatrix in="SourceAlpha" type="matrix" values="0 0 0 0 0 0 0 0 0 0 0 0 0 0 0 0 0 0 127 0" result="hardAlpha"/>
<feOffset dx="-0.6" dy="0.6"/>
<feGaussianBlur stdDeviation="0.5"/>
<feComposite in2="hardAlpha" operator="arithmetic" k2="-1" k3="1"/>
<feColorMatrix type="matrix" values="0 0 0 0 0.901961 0 0 0 0 0.854902 0 0 0 0 0.980392 0 0 0 1 0"/>
<feBlend mode="normal" in2="shape" result="effect1_innerShadow_18590_708"/>
<feColorMatrix in="SourceAlpha" type="matrix" values="0 0 0 0 0 0 0 0 0 0 0 0 0 0 0 0 0 0 127 0" result="hardAlpha"/>
<feOffset dx="0.4" dy="-0.4"/>
<feGaussianBlur stdDeviation="0.2"/>
<feComposite in2="hardAlpha" operator="arithmetic" k2="-1" k3="1"/>
<feColorMatrix type="matrix" values="0 0 0 0 1 0 0 0 0 0.988235 0 0 0 0 1 0 0 0 1 0"/>
<feBlend mode="normal" in2="effect1_innerShadow_18590_708" result="effect2_innerShadow_18590_708"/>
</filter>
<linearGradient id="paint0_linear_18590_708" x1="16.0033" y1="5.51201" x2="16.0033" y2="38.7647" gradientUnits="userSpaceOnUse">
<stop stop-color="#5CB7FF"/>
<stop offset="1" stop-color="#4878DD"/>
</linearGradient>
<radialGradient id="paint1_radial_18590_708" cx="0" cy="0" r="1" gradientUnits="userSpaceOnUse" gradientTransform="translate(27.722 4.03125) rotate(136.771) scale(2.14444 2.50466)">
<stop stop-color="#7BD7FF"/>
<stop offset="1" stop-color="#7BD7FF" stop-opacity="0"/>
</radialGradient>
<linearGradient id="paint2_linear_18590_708" x1="28.7533" y1="4.4375" x2="28.7533" y2="27.3125" gradientUnits="userSpaceOnUse">
<stop stop-color="#7FD9FF"/>
<stop offset="1" stop-color="#639DF4"/>
</linearGradient>
<linearGradient id="paint3_linear_18590_708" x1="28.4672" y1="4.00002" x2="2.93591" y2="4.00002" gradientUnits="userSpaceOnUse">
<stop stop-color="#7DD8FF"/>
<stop offset="1" stop-color="#5DB6FF"/>
</linearGradient>
</defs>
</svg>

<svg width="100%" height="100%" viewBox="0 0 32 32" xmlns="http://www.w3.org/2000/svg"><g filter="url(#a)"><rect width="27.875" height="27.875" x="2.066" y="1.938" fill="url(#b)" rx="3.6"/><rect width="27.875" height="27.875" x="2.066" y="1.938" fill="url(#c)" rx="3.6"/></g><g filter="url(#d)"><path stroke="url(#e)" stroke-linecap="round" stroke-width="1.5" d="M28.253 4.438v22.875"/></g><g filter="url(#f)"><path stroke="url(#g)" stroke-linecap="round" stroke-width="1.5" d="M5.53 3.75h21.78"/></g><g filter="url(#h)"><path fill="#579FFF" d="M23.304 9.58a1 1 0 0 0-1.005-1.006l-6.441.033c-.889.005-1.33 1.08-.702 1.707l1.493 1.493c.127.127.08.348-.05.472l-.018.018-7.586 7.586a1 1 0 0 0 0 1.414l1.586 1.586a1 1 0 0 0 1.414 0l7.586-7.586.018-.018c.124-.13.345-.176.472-.05l1.493 1.494c.628.628 1.703.186 1.707-.702z"/></g><g filter="url(#i)"><path fill="#FCF2FF" d="M23.304 9.58a1 1 0 0 0-1.005-1.006l-6.441.033c-.889.005-1.33 1.08-.702 1.707l1.493 1.493c.127.127.08.348-.05.472l-.018.018-7.586 7.586a1 1 0 0 0 0 1.414l1.586 1.586a1 1 0 0 0 1.414 0l7.586-7.586.018-.018c.124-.13.345-.176.472-.05l1.493 1.494c.628.628 1.703.186 1.707-.702z"/></g><defs><filter id="a" width="28.875" height="28.875" x="2.066" y=".938" color-interpolation-filters="sRGB" filterUnits="userSpaceOnUse"><feFlood flood-opacity="0" result="BackgroundImageFix"/><feBlend in="SourceGraphic" in2="BackgroundImageFix" result="shape"/><feColorMatrix in="SourceAlpha" result="hardAlpha" values="0 0 0 0 0 0 0 0 0 0 0 0 0 0 0 0 0 0 127 0"/><feOffset dx="1" dy="-1"/><feGaussianBlur stdDeviation="1.5"/><feComposite in2="hardAlpha" k2="-1" k3="1" operator="arithmetic"/><feColorMatrix values="0 0 0 0 0.188235 0 0 0 0 0.470588 0 0 0 0 0.843137 0 0 0 1 0"/><feBlend in2="shape" result="effect1_innerShadow_18590_708"/><feColorMatrix in="SourceAlpha" result="hardAlpha" values="0 0 0 0 0 0 0 0 0 0 0 0 0 0 0 0 0 0 127 0"/><feOffset dy="-1"/><feGaussianBlur stdDeviation="1.5"/><feComposite in2="hardAlpha" k2="-1" k3="1" operator="arithmetic"/><feColorMatrix values="0 0 0 0 0.27451 0 0 0 0 0.34902 0 0 0 0 0.8 0 0 0 1 0"/><feBlend in2="effect1_innerShadow_18590_708" result="effect2_innerShadow_18590_708"/></filter><filter id="d" width="5.5" height="28.375" x="25.503" y="1.688" color-interpolation-filters="sRGB" filterUnits="userSpaceOnUse"><feFlood flood-opacity="0" result="BackgroundImageFix"/><feBlend in="SourceGraphic" in2="BackgroundImageFix" result="shape"/><feGaussianBlur result="effect1_foregroundBlur_18590_708" stdDeviation="1"/></filter><filter id="f" width="27.281" height="5.5" x="2.78" y="1" color-interpolation-filters="sRGB" filterUnits="userSpaceOnUse"><feFlood flood-opacity="0" result="BackgroundImageFix"/><feBlend in="SourceGraphic" in2="BackgroundImageFix" result="shape"/><feGaussianBlur result="effect1_foregroundBlur_18590_708" stdDeviation="1"/></filter><filter id="h" width="16.602" height="16.601" x="7.703" y="7.574" color-interpolation-filters="sRGB" filterUnits="userSpaceOnUse"><feFlood flood-opacity="0" result="BackgroundImageFix"/><feBlend in="SourceGraphic" in2="BackgroundImageFix" result="shape"/><feGaussianBlur result="effect1_foregroundBlur_18590_708" stdDeviation=".5"/></filter><filter id="i" width="15.602" height="15.601" x="8.103" y="8.174" color-interpolation-filters="sRGB" filterUnits="userSpaceOnUse"><feFlood flood-opacity="0" result="BackgroundImageFix"/><feBlend in="SourceGraphic" in2="BackgroundImageFix" result="shape"/><feColorMatrix in="SourceAlpha" result="hardAlpha" values="0 0 0 0 0 0 0 0 0 0 0 0 0 0 0 0 0 0 127 0"/><feOffset dx="-.6" dy=".6"/><feGaussianBlur stdDeviation=".5"/><feComposite in2="hardAlpha" k2="-1" k3="1" operator="arithmetic"/><feColorMatrix values="0 0 0 0 0.901961 0 0 0 0 0.854902 0 0 0 0 0.980392 0 0 0 1 0"/><feBlend in2="shape" result="effect1_innerShadow_18590_708"/><feColorMatrix in="SourceAlpha" result="hardAlpha" values="0 0 0 0 0 0 0 0 0 0 0 0 0 0 0 0 0 0 127 0"/><feOffset dx=".4" dy="-.4"/><feGaussianBlur stdDeviation=".2"/><feComposite in2="hardAlpha" k2="-1" k3="1" operator="arithmetic"/><feColorMatrix values="0 0 0 0 1 0 0 0 0 0.988235 0 0 0 0 1 0 0 0 1 0"/><feBlend in2="effect1_innerShadow_18590_708" result="effect2_innerShadow_18590_708"/></filter><linearGradient id="b" x1="16.003" x2="16.003" y1="5.512" y2="38.765" gradientUnits="userSpaceOnUse"><stop stop-color="#5CB7FF"/><stop offset="1" stop-color="#4878DD"/></linearGradient><linearGradient id="e" x1="28.753" x2="28.753" y1="4.438" y2="27.313" gradientUnits="userSpaceOnUse"><stop stop-color="#7FD9FF"/><stop offset="1" stop-color="#639DF4"/></linearGradient><linearGradient id="g" x1="28.467" x2="2.936" y1="4" y2="4" gradientUnits="userSpaceOnUse"><stop stop-color="#7DD8FF"/><stop offset="1" stop-color="#5DB6FF"/></linearGradient><radialGradient id="c" cx="0" cy="0" r="1" gradientTransform="matrix(-1.56249 1.46876 -1.71548 -1.82495 27.722 4.031)" gradientUnits="userSpaceOnUse"><stop stop-color="#7BD7FF"/><stop offset="1" stop-color="#7BD7FF" stop-opacity="0"/></radialGradient></defs></svg>
